src/lib/packages/icons/src/assets/filled/badge.svg

<svg width="24" height="24" viewBox="0 0 24 24" fill="none" xmlns="http://www.w3.org/2000/svg">
<path fill-rule="evenodd" clip-rule="evenodd" d="M20.1219 14.12L19.681 14.561C19.4 14.842 19.2419 15.224 19.2419 15.622V16.243C19.2419 17.899 17.9 19.241 16.244 19.241H15.623C15.225 19.241 14.844 19.399 14.562 19.68L14.1199 20.121C12.9489 21.292 11.051 21.292 9.87996 20.121L9.43794 19.68C9.15694 19.399 8.77491 19.241 8.37691 19.241H7.75594C6.09994 19.241 4.75801 17.899 4.75801 16.243V15.622C4.75801 15.224 4.59992 14.843 4.31892 14.561L3.87801 14.12C2.70701 12.949 2.70701 11.051 3.87801 9.88002L4.31892 9.43901C4.59992 9.15801 4.75801 8.77601 4.75801 8.37801V7.757C4.75801 6.101 6.09994 4.75902 7.75594 4.75902H8.37691C8.77491 4.75902 9.15594 4.60102 9.43794 4.32002L9.87996 3.87901C11.051 2.70801 12.9489 2.70801 14.1199 3.87901L14.562 4.32002C14.843 4.60102 15.225 4.75902 15.623 4.75902H16.244C17.9 4.75902 19.2419 6.101 19.2419 7.757V8.37801C19.2419 8.77601 19.4 9.15701 19.681 9.43901L20.1219 9.88002C21.2929 11.051 21.2929 12.949 20.1219 14.12Z" fill="currentColor"/>
</svg>

<svg xmlns="http://www.w3.org/2000/svg" width="24" height="24" fill="none"><path fill="currentColor" fill-rule="evenodd" d="m20.122 14.12-.441.441c-.281.281-.44.663-.44 1.061v.621a2.998 2.998 0 0 1-2.997 2.998h-.621c-.398 0-.779.158-1.061.439l-.442.441a2.998 2.998 0 0 1-4.24 0l-.442-.441a1.501 1.501 0 0 0-1.061-.439h-.621a2.998 2.998 0 0 1-2.998-2.998v-.621a1.5 1.5 0 0 0-.44-1.061l-.44-.441a2.998 2.998 0 0 1 0-4.24l.44-.441c.282-.281.44-.663.44-1.061v-.621a2.998 2.998 0 0 1 2.998-2.998h.62c.399 0 .78-.158 1.062-.439l.442-.441a2.998 2.998 0 0 1 4.24 0l.442.441a1.5 1.5 0 0 0 1.061.439h.621a2.998 2.998 0 0 1 2.998 2.998v.621c0 .398.158.779.439 1.061l.44.441a2.998 2.998 0 0 1 0 4.24Z" clip-rule="evenodd"/></svg>
